src/images/twitter.svg

<svg width="40" height="41" viewBox="0 0 40 41" fill="none" xmlns="http://www.w3.org/2000/svg">
<rect y="0.523926" width="40" height="40" rx="5" fill="#FFCC29"/>
<path d="M27.9297 16.9614C27.9297 17.1567 27.9297 17.313 27.9297 17.5083C27.9297 22.938 23.8281 29.1489 16.2891 29.1489C13.9453 29.1489 11.7969 28.4849 10 27.313C10.3125 27.3521 10.625 27.3911 10.9766 27.3911C12.8906 27.3911 14.6484 26.7271 16.0547 25.6333C14.2578 25.5942 12.7344 24.4224 12.2266 22.7817C12.5 22.8208 12.7344 22.8599 13.0078 22.8599C13.3594 22.8599 13.75 22.7817 14.0625 22.7036C12.1875 22.313 10.7812 20.6724 10.7812 18.6802V18.6411C11.3281 18.9536 11.9922 19.1099 12.6562 19.1489C11.5234 18.4067 10.8203 17.1567 10.8203 15.7505C10.8203 14.9692 11.0156 14.2661 11.3672 13.6802C13.3984 16.1411 16.4453 17.7817 19.8438 17.9771C19.7656 17.6646 19.7266 17.3521 19.7266 17.0396C19.7266 14.7739 21.5625 12.938 23.8281 12.938C25 12.938 26.0547 13.4067 26.8359 14.2271C27.7344 14.0317 28.6328 13.6802 29.4141 13.2114C29.1016 14.188 28.4766 14.9692 27.6172 15.4771C28.4375 15.3989 29.2578 15.1646 29.9609 14.8521C29.4141 15.6724 28.7109 16.3755 27.9297 16.9614Z" fill="#C10023"/>
</svg>

<svg xmlns="http://www.w3.org/2000/svg" width="40" height="41" fill="none"><rect width="40" height="40" y=".524" fill="#FFCC29" rx="5"/><path fill="#C10023" d="M27.93 16.961v.547c0 5.43-4.102 11.64-11.64 11.64-2.345 0-4.493-.663-6.29-1.835.313.04.625.078.977.078a8.25 8.25 0 0 0 5.078-1.758c-1.797-.039-3.32-1.21-3.828-2.851.273.039.507.078.78.078.352 0 .743-.078 1.056-.156a4.11 4.11 0 0 1-3.282-4.024v-.039c.547.313 1.211.469 1.875.508a4.04 4.04 0 0 1-1.836-3.399c0-.78.196-1.484.547-2.07a11.9 11.9 0 0 0 8.477 4.297 3.9 3.9 0 0 1-.117-.937 4.1 4.1 0 0 1 4.101-4.102c1.172 0 2.227.469 3.008 1.29a8.7 8.7 0 0 0 2.578-1.017 4 4 0 0 1-1.797 2.266 7.7 7.7 0 0 0 2.344-.625c-.547.82-1.25 1.523-2.031 2.11"/></svg>
